X: 15787
T: Goodbye Grant
R: mazurka
M: 3/4
K: Bminor
FB Bd c/B/A|FB BA FE|FB Bd c/B/A|ed cA B2:|
f2 dc df|e2 cB cf|e2 cB cf|ed cA B2:|

